elementary-add/apps/48/bridge-constructor.svg

<?xml version="1.0" encoding="UTF-8" standalone="no"?>
<!-- Created with Inkscape (http://www.inkscape.org/) -->

<svg
   xmlns:dc="http://purl.org/dc/elements/1.1/"
   xmlns:cc="http://creativecommons.org/ns#"
   xmlns:rdf="http://www.w3.org/1999/02/22-rdf-syntax-ns#"
   xmlns:svg="http://www.w3.org/2000/svg"
   xmlns="http://www.w3.org/2000/svg"
   xmlns:xlink="http://www.w3.org/1999/xlink"
   xmlns:sodipodi="http://sodipodi.sourceforge.net/DTD/sodipodi-0.dtd"
   xmlns:inkscape="http://www.inkscape.org/namespaces/inkscape"
   version="1.1"
   width="48"
   height="48"
   id="svg3143"
   inkscape:version="0.91 r"
   sodipodi:docname="bridge-constructor.svg">
  <sodipodi:namedview
     pagecolor="#797979"
     bordercolor="#666666"
     borderopacity="1"
     objecttolerance="10"
     gridtolerance="10"
     guidetolerance="10"
     inkscape:pageopacity="0"
     inkscape:pageshadow="2"
     inkscape:window-width="1600"
     inkscape:window-height="845"
     id="namedview46"
     showgrid="false"
     inkscape:zoom="17.31"
     inkscape:cx="27.440451"
     inkscape:cy="22.933988"
     inkscape:window-x="0"
     inkscape:window-y="30"
     inkscape:window-maximized="1"
     inkscape:current-layer="svg3143"
     showguides="false" />
  <defs
     id="defs3145">
    <linearGradient
       x1="23.99999"
       y1="4.999989"
       x2="23.99999"
       y2="43"
       id="linearGradient4181"
       xlink:href="#linearGradient3924-3"
       gradientUnits="userSpaceOnUse"
       gradientTransform="translate(5.3e-6,1.0000015)" />
    <linearGradient
       id="linearGradient3924-3">
      <stop
         id="stop3926-7"
         style="stop-color:#ffffff;stop-opacity:1"
         offset="0" />
      <stop
         id="stop3928-3"
         style="stop-color:#ffffff;stop-opacity:0.23529412"
         offset="0.06316455" />
      <stop
         id="stop3930-7"
         style="stop-color:#ffffff;stop-opacity:0.15686275"
         offset="0.95056331" />
      <stop
         id="stop3932-1"
         style="stop-color:#ffffff;stop-opacity:0.39215687"
         offset="1" />
    </linearGradient>
    <linearGradient
       x1="167.98311"
       y1="8.50811"
       x2="167.98311"
       y2="54.780239"
       id="linearGradient4907-4"
       xlink:href="#linearGradient5803-2-7"
       gradientUnits="userSpaceOnUse"
       gradientTransform="matrix(0.7037037,0,0,0.7037037,-39.333369,2.4814295)" />
    <linearGradient
       id="linearGradient5803-2-7">
      <stop
         id="stop5805-3-6"
         style="stop-color:#fffdf3;stop-opacity:1"
         offset="0" />
      <stop
         id="stop5807-0-0"
         style="stop-color:#fbebeb;stop-opacity:1"
         offset="1" />
    </linearGradient>
    <radialGradient
       cx="8.276144"
       cy="9.9941158"
       r="12.671875"
       fx="8.276144"
       fy="9.9941158"
       id="radialGradient6305"
       xlink:href="#linearGradient3242"
       gradientUnits="userSpaceOnUse"
       gradientTransform="matrix(0,6.6677582,-8.1858766,0,105.8829,-59.462774)" />
    <linearGradient
       id="linearGradient3242">
      <stop
         id="stop3244"
         style="stop-color:#7ec1f8;stop-opacity:1;"
         offset="0" />
      <stop
         id="stop3246"
         style="stop-color:#4f97e3;stop-opacity:1;"
         offset="0.26238" />
      <stop
         id="stop3248"
         style="stop-color:#2674c6;stop-opacity:1;"
         offset="0.66093999" />
      <stop
         id="stop3250"
         style="stop-color:#0b4169;stop-opacity:1;"
         offset="1" />
    </linearGradient>
    <radialGradient
       cx="4.9929786"
       cy="43.5"
       r="2.5"
       fx="4.9929786"
       fy="43.5"
       id="radialGradient3013"
       xlink:href="#linearGradient3688-166-749"
       gradientUnits="userSpaceOnUse"
       gradientTransform="matrix(2.003784,0,0,1.4,27.98813,-17.4)" />
    <linearGradient
       id="linearGradient3688-166-749">
      <stop
         id="stop2883"
         style="stop-color:#181818;stop-opacity:1"
         offset="0" />
      <stop
         id="stop2885"
         style="stop-color:#181818;stop-opacity:0"
         offset="1" />
    </linearGradient>
    <radialGradient
       cx="4.9929786"
       cy="43.5"
       r="2.5"
       fx="4.9929786"
       fy="43.5"
       id="radialGradient3015"
       xlink:href="#linearGradient3688-464-309"
       gradientUnits="userSpaceOnUse"
       gradientTransform="matrix(2.003784,0,0,1.4,-20.01187,-104.4)" />
    <linearGradient
       id="linearGradient3688-464-309">
      <stop
         id="stop2889"
         style="stop-color:#181818;stop-opacity:1"
         offset="0" />
      <stop
         id="stop2891"
         style="stop-color:#181818;stop-opacity:0"
         offset="1" />
    </linearGradient>
    <linearGradient
       id="linearGradient3702-501-757">
      <stop
         id="stop2895"
         style="stop-color:#181818;stop-opacity:0"
         offset="0" />
      <stop
         id="stop2897"
         style="stop-color:#181818;stop-opacity:1"
         offset="0.5" />
      <stop
         id="stop2899"
         style="stop-color:#181818;stop-opacity:0"
         offset="1" />
    </linearGradient>
    <linearGradient
       x1="25.058096"
       y1="47.027729"
       x2="25.058096"
       y2="39.999443"
       id="linearGradient3141"
       xlink:href="#linearGradient3702-501-757"
       gradientUnits="userSpaceOnUse" />
    <radialGradient
       inkscape:collect="always"
       xlink:href="#linearGradient3688-166-749"
       id="radialGradient3030"
       gradientUnits="userSpaceOnUse"
       gradientTransform="matrix(2.003784,0,0,1.4,27.98813,-17.4)"
       cx="4.9929786"
       cy="43.5"
       fx="4.9929786"
       fy="43.5"
       r="2.5" />
    <radialGradient
       inkscape:collect="always"
       xlink:href="#linearGradient3688-464-309"
       id="radialGradient3032"
       gradientUnits="userSpaceOnUse"
       gradientTransform="matrix(2.003784,0,0,1.4,-20.01187,-104.4)"
       cx="4.9929786"
       cy="43.5"
       fx="4.9929786"
       fy="43.5"
       r="2.5" />
    <linearGradient
       inkscape:collect="always"
       xlink:href="#linearGradient3702-501-757"
       id="linearGradient3034"
       gradientUnits="userSpaceOnUse"
       x1="25.058096"
       y1="47.027729"
       x2="25.058096"
       y2="39.999443" />
    <radialGradient
       inkscape:collect="always"
       xlink:href="#linearGradient3242"
       id="radialGradient3036"
       gradientUnits="userSpaceOnUse"
       gradientTransform="matrix(0,6.6677582,-8.1858766,0,105.8829,-59.462774)"
       cx="8.276144"
       cy="9.9941158"
       fx="8.276144"
       fy="9.9941158"
       r="12.671875" />
    <linearGradient
       inkscape:collect="always"
       xlink:href="#linearGradient5803-2-7"
       id="linearGradient3038"
       gradientUnits="userSpaceOnUse"
       gradientTransform="matrix(0.7037037,0,0,0.7037037,-39.333369,2.4814295)"
       x1="167.98311"
       y1="8.50811"
       x2="167.98311"
       y2="54.780239" />
    <linearGradient
       inkscape:collect="always"
       xlink:href="#linearGradient3924-3"
       id="linearGradient3040"
       gradientUnits="userSpaceOnUse"
       gradientTransform="translate(5.3e-6,1.0000015)"
       x1="23.99999"
       y1="4.999989"
       x2="23.99999"
       y2="43" />
    <linearGradient
       inkscape:collect="always"
       xlink:href="#linearGradient3924-3"
       id="linearGradient3044"
       gradientUnits="userSpaceOnUse"
       gradientTransform="translate(5.3e-6,1.0000015)"
       x1="23.99999"
       y1="4.999989"
       x2="23.99999"
       y2="43" />
    <linearGradient
       inkscape:collect="always"
       xlink:href="#linearGradient5803-2-7"
       id="linearGradient3048"
       gradientUnits="userSpaceOnUse"
       gradientTransform="matrix(0.7037037,0,0,0.7037037,-39.333369,2.4814295)"
       x1="167.98311"
       y1="8.50811"
       x2="167.98311"
       y2="54.780239" />
    <radialGradient
       inkscape:collect="always"
       xlink:href="#linearGradient3242"
       id="radialGradient3053"
       gradientUnits="userSpaceOnUse"
       gradientTransform="matrix(0,6.6677582,-8.1858766,0,105.8829,-59.462774)"
       cx="8.276144"
       cy="9.9941158"
       fx="8.276144"
       fy="9.9941158"
       r="12.671875" />
    <linearGradient
       inkscape:collect="always"
       xlink:href="#linearGradient3242"
       id="linearGradient3822"
       x1="-96.893837"
       y1="-41.815022"
       x2="-99.388855"
       y2="194.26593"
       gradientUnits="userSpaceOnUse"
       gradientTransform="matrix(0.32644585,0,0,0.32644585,55.821581,18.116968)" />
    <linearGradient
       inkscape:collect="always"
       xlink:href="#linearGradient2867-449-88-871-390-598-476-591-434-148"
       id="linearGradient3058"
       gradientUnits="userSpaceOnUse"
       x1="23"
       y1="20"
       x2="23"
       y2="41" />
    <linearGradient
       id="linearGradient2867-449-88-871-390-598-476-591-434-148">
      <stop
         offset="0"
         style="stop-color:#51cfee;stop-opacity:1"
         id="stop4627" />
      <stop
         offset="0.26238"
         style="stop-color:#49a3d2;stop-opacity:1"
         id="stop4629" />
      <stop
         offset="0.704952"
         style="stop-color:#3470b4;stop-opacity:1"
         id="stop4631" />
      <stop
         offset="1"
         style="stop-color:#1b5699;stop-opacity:1"
         id="stop4633" />
    </linearGradient>
    <linearGradient
       inkscape:collect="always"
       xlink:href="#linearGradient3332-412-419-652-471-761-410-156-661-505"
       id="linearGradient3060"
       gradientUnits="userSpaceOnUse"
       x1="35"
       y1="32.035667"
       x2="35"
       y2="18" />
    <linearGradient
       id="linearGradient3332-412-419-652-471-761-410-156-661-505">
      <stop
         offset="0"
         style="stop-color:#205286;stop-opacity:1;"
         id="stop8032" />
      <stop
         offset="1"
         style="stop-color:#5492be;stop-opacity:1;"
         id="stop8034" />
    </linearGradient>
    <linearGradient
       inkscape:collect="always"
       xlink:href="#linearGradient2238"
       id="linearGradient3062"
       gradientUnits="userSpaceOnUse"
       x1="32.817135"
       y1="19.818853"
       x2="32.817135"
       y2="30.184839" />
    <linearGradient
       id="linearGradient2238">
      <stop
         offset="0"
         style="stop-color:#ffffff;stop-opacity:1"
         id="stop2240" />
      <stop
         offset="1"
         style="stop-color:#ffffff;stop-opacity:0"
         id="stop2242" />
    </linearGradient>
    <linearGradient
       y2="30.184839"
       x2="32.817135"
       y1="19.818853"
       x1="32.817135"
       gradientUnits="userSpaceOnUse"
       id="linearGradient3093"
       xlink:href="#linearGradient2238"
       inkscape:collect="always" />
    <linearGradient
       inkscape:collect="always"
       xlink:href="#linearGradient2238"
       id="linearGradient3075"
       gradientUnits="userSpaceOnUse"
       x1="32.817135"
       y1="19.818853"
       x2="32.817135"
       y2="30.184839"
       gradientTransform="translate(0.52261275,-0.84678633)" />
  </defs>
  <metadata
     id="metadata3148">
    <rdf:RDF>
      <cc:Work
         rdf:about="">
        <dc:format>image/svg+xml</dc:format>
        <dc:type
           rdf:resource="http://purl.org/dc/dcmitype/StillImage" />
        <dc:title />
      </cc:Work>
    </rdf:RDF>
  </metadata>
  <g
     id="g4214"
     transform="translate(-2.3682927,-0.31607214)" />
  <g
     id="g4239">
    <g
       transform="matrix(1.1578952,0,0,0.6428571,-3.789476,16.035716)"
       id="g3712-5"
       style="opacity:0.6">
      <rect
         width="5"
         height="7"
         x="38"
         y="40"
         id="rect2801-3"
         style="fill:url(#radialGradient3030);fill-opacity:1;stroke:none" />
      <rect
         width="5"
         height="7"
         x="-10"
         y="-47"
         transform="scale(-1,-1)"
         id="rect3696-6"
         style="fill:url(#radialGradient3032);fill-opacity:1;stroke:none" />
      <rect
         width="28"
         height="7.0000005"
         x="10"
         y="40"
         id="rect3700-4"
         style="fill:url(#linearGradient3034);fill-opacity:1;stroke:none" />
    </g>
    <rect
       style="color:#000000;display:inline;overflow:visible;visibility:visible;fill:#ffffff;fill-opacity:1;fill-rule:nonzero;stroke:none;stroke-width:0.99999994;marker:none;enable-background:accumulate"
       id="rect4232"
       y="5.5"
       x="4.5"
       ry="2"
       rx="2"
       height="39"
       width="39" />
    <path
       style="color:#000000;fill:url(#radialGradient3053);fill-opacity:1;fill-rule:nonzero;stroke:none;stroke-width:0.99999994;marker:none;visibility:visible;display:inline;overflow:visible;enable-background:accumulate"
       d="M 6.5 5.5 C 5.392 5.5 4.5 6.392 4.5 7.5 L 4.5 27.775391 L 6.1757812 27.775391 L 10.935547 10.005859 A 0.50001903 0.50001903 0 0 1 11.396484 9.6289062 A 0.50001903 0.50001903 0 0 1 11.445312 9.6289062 A 0.50001903 0.50001903 0 0 1 11.464844 9.6308594 A 0.50001903 0.50001903 0 0 0 11.466797 9.6308594 A 0.50001903 0.50001903 0 0 1 11.515625 9.6289062 A 0.50001903 0.50001903 0 0 1 11.554688 9.6328125 L 11.554688 9.5996094 L 36.445312 9.5996094 L 36.445312 9.6289062 A 0.50001903 0.50001903 0 0 1 36.464844 9.6308594 A 0.50001903 0.50001903 0 0 0 36.466797 9.6308594 A 0.50001903 0.50001903 0 0 1 36.515625 9.6289062 A 0.50001903 0.50001903 0 0 1 36.988281 10.005859 L 41.75 27.775391 L 43.5 27.775391 L 43.5 7.5 C 43.5 6.392 42.608 5.5 41.5 5.5 L 6.5 5.5 z M 12.146484 10.599609 L 16.75 27.775391 L 22.699219 27.775391 L 18.095703 10.599609 L 12.146484 10.599609 z M 19.162109 10.599609 L 23.763672 27.775391 L 24.150391 27.775391 L 28.751953 10.599609 L 19.162109 10.599609 z M 29.818359 10.599609 L 25.214844 27.775391 L 31.175781 27.775391 L 35.777344 10.599609 L 29.818359 10.599609 z M 11.462891 11.90625 L 7.2109375 27.775391 L 15.714844 27.775391 L 11.462891 11.90625 z M 36.462891 11.90625 L 32.210938 27.775391 L 40.714844 27.775391 L 36.462891 11.90625 z M 4.5 29.775391 L 4.5 42.5 C 4.5 43.608 5.392 44.5 6.5 44.5 L 13 44.5 L 13 29.775391 L 4.5 29.775391 z M 19 29.775391 L 19 44.5 L 29 44.5 L 29 29.775391 L 19 29.775391 z M 35 29.775391 L 35 44.5 L 41.5 44.5 C 42.608 44.5 43.5 43.608 43.5 42.5 L 43.5 29.775391 L 35 29.775391 z "
       id="rect5505-21" />
    <rect
       width="37"
       height="37"
       rx="1"
       ry="1"
       x="5.5"
       y="6.4999924"
       id="rect6741-2"
       style="opacity:0.5;fill:none;stroke:url(#linearGradient3044);stroke-width:1;stroke-linecap:round;stroke-linejoin:round;stroke-miterlimit:4;stroke-opacity:1;stroke-dasharray:none;stroke-dashoffset:0" />
    <rect
       width="39"
       height="39"
       rx="2"
       ry="2"
       x="4.5"
       y="5.5"
       id="rect5505-21-1"
       style="opacity:0.4;color:#000000;fill:none;stroke:#0035a4;stroke-width:1;stroke-linecap:round;stroke-linejoin:round;stroke-miterlimit:4;stroke-opacity:1;stroke-dasharray:none;stroke-dashoffset:0;marker:none;visibility:visible;display:inline;overflow:visible;enable-background:accumulate" />
    <g
       id="g4218"
       transform="translate(22.631707,-0.31607214)" />
  </g>
</svg>

<?xml version="1.0" encoding="UTF-8" standalone="no"?>
<!-- Created with Inkscape (http://www.inkscape.org/) -->
<svg id="svg3143" xmlns:rdf="http://www.w3.org/1999/02/22-rdf-syntax-ns#" xmlns="http://www.w3.org/2000/svg" height="48" width="48" version="1.1" xmlns:cc="http://creativecommons.org/ns#" xmlns:xlink="http://www.w3.org/1999/xlink" xmlns:dc="http://purl.org/dc/elements/1.1/">
 <defs id="defs3145">
  <radialGradient id="radialGradient3030" gradientUnits="userSpaceOnUse" cy="43.5" cx="4.993" gradientTransform="matrix(2.0038 0 0 1.4 27.988 -17.4)" r="2.5">
   <stop id="stop2883" stop-color="#181818" offset="0"/>
   <stop id="stop2885" stop-color="#181818" stop-opacity="0" offset="1"/>
  </radialGradient>
  <radialGradient id="radialGradient3032" gradientUnits="userSpaceOnUse" cy="43.5" cx="4.993" gradientTransform="matrix(2.0038 0 0 1.4 -20.012 -104.4)" r="2.5">
   <stop id="stop2889" stop-color="#181818" offset="0"/>
   <stop id="stop2891" stop-color="#181818" stop-opacity="0" offset="1"/>
  </radialGradient>
  <linearGradient id="linearGradient3034" y2="39.999" gradientUnits="userSpaceOnUse" x2="25.058" y1="47.028" x1="25.058">
   <stop id="stop2895" stop-color="#181818" stop-opacity="0" offset="0"/>
   <stop id="stop2897" stop-color="#181818" offset=".5"/>
   <stop id="stop2899" stop-color="#181818" stop-opacity="0" offset="1"/>
  </linearGradient>
  <linearGradient id="linearGradient3044" y2="43" gradientUnits="userSpaceOnUse" x2="24" gradientTransform="translate(.0000053 1)" y1="5" x1="24">
   <stop id="stop3926-7" stop-color="#fff" offset="0"/>
   <stop id="stop3928-3" stop-color="#fff" stop-opacity=".23529" offset=".063165"/>
   <stop id="stop3930-7" stop-color="#fff" stop-opacity=".15686" offset=".95056"/>
   <stop id="stop3932-1" stop-color="#fff" stop-opacity=".39216" offset="1"/>
  </linearGradient>
  <radialGradient id="radialGradient3053" gradientUnits="userSpaceOnUse" cy="9.9941" cx="8.2761" gradientTransform="matrix(0 6.6678 -8.1859 0 105.88 -59.463)" r="12.672">
   <stop id="stop3244" stop-color="#7ec1f8" offset="0"/>
   <stop id="stop3246" stop-color="#4f97e3" offset=".26238"/>
   <stop id="stop3248" stop-color="#2674c6" offset=".66094"/>
   <stop id="stop3250" stop-color="#0b4169" offset="1"/>
  </radialGradient>
 </defs>
 <metadata id="metadata3148">
  <rdf:RDF>
   <cc:Work rdf:about="">
    <dc:format>image/svg+xml</dc:format>
    <dc:type rdf:resource="http://purl.org/dc/dcmitype/StillImage"/>
    <dc:title/>
   </cc:Work>
  </rdf:RDF>
 </metadata>
 <g id="g4239">
  <g id="g3712-5" opacity=".6" transform="matrix(1.1579 0 0 .64286 -3.7895 16.036)">
   <rect id="rect2801-3" height="7" width="5" y="40" x="38" fill="url(#radialGradient3030)"/>
   <rect id="rect3696-6" transform="scale(-1)" height="7" width="5" y="-47" x="-10" fill="url(#radialGradient3032)"/>
   <rect id="rect3700-4" height="7" width="28" y="40" x="10" fill="url(#linearGradient3034)"/>
  </g>
  <rect id="rect4232" style="color:#000000" rx="2" ry="2" height="39" width="39" y="5.5" x="4.5" fill="#fff"/>
  <path id="rect5505-21" style="color:#000000" d="m6.5 5.5c-1.108 0-2 0.892-2 2v20.275h1.6758l4.7602-17.769a0.50002 0.50002 0 0 1 0.46 -0.3771 0.50002 0.50002 0 0 1 0.049 0 0.50002 0.50002 0 0 1 0.02 0.002 0.50002 0.50002 0 0 0 0.002 0 0.50002 0.50002 0 0 1 0.049 -0.002 0.50002 0.50002 0 0 1 0.039 0.0039v-0.0332h24.89v0.0293a0.50002 0.50002 0 0 1 0.02 0.002 0.50002 0.50002 0 0 0 0.002 0 0.50002 0.50002 0 0 1 0.049 -0.002 0.50002 0.50002 0 0 1 0.472 0.3771l4.762 17.769h1.75v-20.275c0-1.108-0.892-2-2-2h-35zm5.646 5.1l4.604 17.175h5.949l-4.603-17.175h-5.95zm7.016 0l4.602 17.175h0.386l4.602-17.175h-9.59zm10.656 0l-4.603 17.175h5.961l4.601-17.175h-5.959zm-18.355 1.306l-4.2521 15.869h8.5041l-4.252-15.869zm25 0l-4.252 15.869h8.504l-4.252-15.869zm-31.963 17.869v12.725c0 1.108 0.892 2 2 2h6.5v-14.725h-8.5zm14.5 0v14.725h10v-14.725h-10zm16 0v14.725h6.5c1.108 0 2-0.892 2-2v-12.725h-8.5z" fill="url(#radialGradient3053)"/>
  <rect id="rect6741-2" opacity=".5" stroke-linejoin="round" rx="1" ry="1" height="37" width="37" stroke="url(#linearGradient3044)" stroke-linecap="round" y="6.5" x="5.5" fill="none"/>
  <rect id="rect5505-21-1" opacity=".4" stroke-linejoin="round" style="color:#000000" rx="2" ry="2" height="39" width="39" stroke="#0035a4" stroke-linecap="round" y="5.5" x="4.5" fill="none"/>
 </g>
</svg>
